src/icons/import-address-book.svg

<svg viewBox="0 0 24 24" fill="none" xmlns="http://www.w3.org/2000/svg">
<path d="M12.988 4.45348L5.50214 3.12932L11.4344 2.08765C13.6148 1.69923 14.9478 2.61731 14.9831 4.53293L14.9919 5.11556C14.4446 4.81541 13.7825 4.59472 12.988 4.45348Z" fill="currentColor"/>
<path fill-rule="evenodd" clip-rule="evenodd" d="M12.5555 21.9412L2.81851 20.2286C1.62677 20.0167 1 19.3017 1 18.1188V5.91888C1 4.54176 1.94457 3.75609 3.33052 3.99444L12.7673 5.66288C14.6388 5.9895 15.5393 6.70455 15.5393 8.54954V11.5262C13.4527 12.4657 12 14.5632 12 17C12 18.9287 12.91 20.6448 14.324 21.7424C13.8514 21.9911 13.2541 22.0649 12.5555 21.9412ZM4.03673 8.59368C4.03673 8.94679 4.23094 9.21162 4.57523 9.26459L11.4079 10.474C11.8757 10.5446 12.1847 10.2533 12.1847 9.82956C12.1847 9.44114 11.9905 9.22927 11.6286 9.15865L4.84006 7.96691C4.37219 7.88746 4.03673 8.16995 4.03673 8.59368ZM4.03673 12.213C4.03673 12.5662 4.23977 12.8222 4.57523 12.8839L11.4079 14.1022C11.8757 14.1728 12.1847 13.8815 12.1847 13.4401C12.1847 13.0693 11.9905 12.8575 11.6286 12.7868L4.84006 11.5951C4.37219 11.5157 4.03673 11.7981 4.03673 12.213Z" fill="currentColor"/>
<path fill-rule="evenodd" clip-rule="evenodd" d="M13 17C13 19.3376 14.6224 21.3069 16.7894 21.8507L17.0256 21.904C17.1535 21.9295 17.2831 21.95 17.4127 21.9656C17.5341 21.9803 17.6572 21.9902 17.7802 21.9951L18 22C18.2149 22 18.4281 21.9861 18.6365 21.9582C18.8383 21.9311 19.0351 21.8926 19.2287 21.8417C21.3661 21.2823 23 19.3097 23 17C23 14.2638 20.7362 12 18 12C15.2539 12 13 14.2638 13 17ZM18.4724 19.9232L19.1302 19.3138L19.3894 19.0743L20.0505 18.4608L20.0636 18.4485L20.1391 18.3788L20.2949 18.2344L20.7165 17.8448L21.0217 17.561L21.0315 17.552C21.1726 17.4257 21.2382 17.2813 21.2382 17.0984C21.2382 16.7638 20.9823 16.498 20.6378 16.5177C20.5853 16.521 20.5328 16.53 20.4836 16.544C20.4327 16.5587 20.3852 16.5792 20.3392 16.6047C20.3064 16.6235 20.2769 16.644 20.2474 16.6678L20.2178 16.6932L20.1949 16.7146L19.7963 17.1132L19.583 17.3256L19.25 17.6594L19.0712 17.8432L18.6578 18.2697L18.6102 18.3189L18.6119 18.2713L18.643 17.4749L18.6594 17.0861V14.4606C18.6594 14.1161 18.3642 13.8209 18.0098 13.8209C17.6555 13.8209 17.3602 14.1161 17.3602 14.4606V17.0689L17.4078 18.2713L17.4094 18.3189L17.3602 18.2697L16.7598 17.6594L16.4219 17.3182L16.2201 17.114L16.1759 17.0689L16.125 17.0189L15.8248 16.7146L15.7986 16.69L15.7674 16.6629C15.7395 16.6407 15.7116 16.6202 15.6804 16.6014C15.5869 16.5456 15.4787 16.5112 15.372 16.5177C15.0276 16.5177 14.752 16.7638 14.7717 17.0984C14.7782 17.2198 14.8045 17.324 14.8635 17.4175C14.893 17.4651 14.9308 17.5094 14.9783 17.552L14.9882 17.561L15.372 17.9178L15.459 17.999L15.6345 18.1614L15.7247 18.2467L15.8675 18.3796L15.9528 18.4583L16.6286 19.0874L16.8894 19.3294L17.5276 19.9232C17.7047 20.0906 17.8425 20.1594 18.0098 20.1594C18.1772 20.1594 18.3051 20.0807 18.4724 19.9232Z" fill="currentColor"/>
</svg>

<svg viewBox="0 0 24 24" fill="none" xmlns="http://www.w3.org/2000/svg"><path d="M12.988 4.453 5.502 3.13l5.932-1.041c2.18-.389 3.514.53 3.55 2.445l.008.583c-.547-.3-1.21-.521-2.004-.663z" fill="currentColor"/><path fill-rule="evenodd" clip-rule="evenodd" d="M12.556 21.941 2.819 20.23C1.627 20.017 1 19.302 1 18.119v-12.2c0-1.377.945-2.163 2.33-1.925l9.437 1.669c1.872.326 2.772 1.042 2.772 2.887v2.976a6.001 6.001 0 0 0-1.215 10.216c-.473.25-1.07.323-1.768.2zM4.036 8.594c0 .353.195.618.54.67l6.832 1.21c.468.07.777-.22.777-.644 0-.389-.194-.6-.556-.671L4.84 7.967c-.468-.08-.803.203-.803.627zm0 3.619c0 .353.204.61.54.67l6.832 1.22c.468.07.777-.221.777-.663 0-.37-.194-.582-.556-.653L4.84 11.595c-.468-.08-.803.203-.803.618z" fill="currentColor"/><path fill-rule="evenodd" clip-rule="evenodd" d="M13 17c0 2.338 1.622 4.307 3.79 4.85l.236.054a5.1 5.1 0 0 0 .754.091L18 22a4.803 4.803 0 0 0 1.229-.158C21.366 21.282 23 19.31 23 17c0-2.736-2.264-5-5-5-2.746 0-5 2.264-5 5zm5.472 2.923.658-.61.26-.239.66-.613.014-.012.075-.07.156-.145.421-.39.306-.283.01-.009a.574.574 0 0 0 .206-.454c0-.334-.256-.6-.6-.58a.692.692 0 0 0-.39.15l-.03.025-.023.022-.399.398-.213.213-.333.333-.179.184-.413.427-.048.049.002-.048.031-.796.016-.389v-2.625a.653.653 0 0 0-.65-.64.653.653 0 0 0-.649.64v2.608l.048 1.202.001.048-.049-.05-.6-.61-.338-.34-.202-.205-.044-.045-.051-.05-.3-.304-.026-.025-.032-.027a.81.81 0 0 0-.087-.062.547.547 0 0 0-.308-.083c-.344 0-.62.246-.6.58a.642.642 0 0 0 .091.32c.03.047.068.091.115.134l.01.009.384.357.087.081.175.162.09.086.143.133.086.078.676.63.26.241.639.594c.177.168.315.236.482.236.167 0 .295-.078.462-.236z" fill="currentColor"/></svg>
